modules/stroke-7/icons/browser.svg

<?xml version="1.0" encoding="utf-8"?>
<!-- Generated by IcoMoon.io -->
<!DOCTYPE svg PUBLIC "-//W3C//DTD SVG 1.1//EN" "http://www.w3.org/Graphics/SVG/1.1/DTD/svg11.dtd">
<svg version="1.1" xmlns="http://www.w3.org/2000/svg" xmlns:xlink="http://www.w3.org/1999/xlink" width="32" height="32" viewBox="0 0 32 32">
<g id="icomoon-ignore">
</g>
<path d="M2.672 2.672v26.656h26.657v-26.656h-26.657zM28.262 3.738v4.265h-24.524v-4.265h24.524zM3.738 28.262v-19.192h24.524v19.192h-24.524z" fill="#000000"></path>
<path d="M9.602 5.338h16.527v1.066h-16.527v-1.066z" fill="#000000"></path>
<path d="M5.337 5.338h1.066v1.066h-1.066v-1.066z" fill="#000000"></path>
<path d="M7.47 5.338h1.066v1.066h-1.066v-1.066z" fill="#000000"></path>
</svg>

<svg xmlns="http://www.w3.org/2000/svg" width="32" height="32"><path d="M2.672 2.672v26.656h26.657V2.672H2.672zm25.59 1.066v4.265H3.738V3.738h24.524zM3.738 28.262V9.07h24.524v19.192H3.738z"/><path d="M9.602 5.338h16.527v1.066H9.602V5.338zM5.337 5.338h1.066v1.066H5.337V5.338zM7.47 5.338h1.066v1.066H7.47V5.338z"/></svg>
